!!!COM: Chopin, Fr&egrave;d&egrave;ric
!!!OTL: Waltz in A-flat major
!!!SCT: Op. 34/1
**kern	**kern
*staff2	*staff1
*Ipiano	*Ipiano
*clefF4	*clefG2
*k[b-e-a-d-]	*k[b-e-a-d-]
*M3/4	*M3/4
*MM180	*MM180
=1-	=1-
2.r	2.r
=2	=2
2.r	4e-/
.	8e-/L
.	8e-/J
.	4e-/
=3	=3
2.r	8f/L
.	8e-/J
.	8d-/L
*	*clefF4
.	8B-/J
.	4E-\
=4	=4
4EE-'/	4r
*	*clefG2
4e-'\	4g'\ 4dd-'\ 4ee-'\ 4gg'\
*clefG2	*
4f'/	4a-'\ 4dd-'\ 4ee-'\ 4aa-'\
=5	=5
4g-'/	4an'\ 4dd-'\ 4ee-'\ 4aan'\
4gn'/	4b-'\ 4dd-'\ 4ee-'\ 4bb-'\
4r	4r
=6	=6
2.r	4e-/
.	8e-/L
.	8e-/J
.	4e-/
=7	=7
!!linebreak:original
2.r	8f/L
.	8e-/J
.	8d-/L
*	*clefF4
.	8B-/J
.	4E-\
=8	=8
*clefF4	*
4EE-'/	4r
*clefG2	*clefG2
4g'/	4b-'\ 4ee-'\ 4bb-'\
4a-'/	4cc-'\ 4ee-'\ 4ccc-'\
=9	=9
4e-'/ 4an'/	4cc'\ 4ee-'\ 4gg-'\ 4ccc'\
4B-'/ 4b-'/	4dd-'\ 4ee-'\ 4ggn'\ 4ddd-'\
4r	4r
=10	=10
2.r	4e-/
.	8e-/L
.	8e-/J
.	4e-/
=11	=11
2.r	8f/L
.	8e-/J
.	8d-/L
*	*clefF4
.	8B-/J
.	4E-\
=12	=12
!!linebreak:original
*	*clefG2
8f/L	8ff\L
8e-/J	8ee-\J
8d-/L	8dd-\L
*clefF4	*
8B-/J	8b-\J
4E-\	4e-/
=13	=13
*clefG2	*
8ff\L	8fff\L
8ee-\J	8eee-\J
8dd-\L	8ddd-\L
8b-\J	8bb-\J
4e-/	4ee-\
=14	=14
4e-\ 4gg\	8ffff\L
.	8eeee-\J
4r	8dddd-\L
.	8bbb-\J
4r	8eee-\L
.	8fff\J
=15	=15
2.r	8eee-\L
.	8ddd-\J
.	8bb-\L
.	8ee-\J
.	8ff\L
.	8ee-\J
=16	=16
2.r	8dd-\L
.	8b-\J
.	8e-/L
.	8f/J
.	8e-/L
.	8d-/J
=17	=17
!!linebreak:original
*clefF4	*
8B-\L	2.r
8E-\J	.
8F\L	.
8E-\J	.
8D-/L	.
8BB-/J	.
=18	=18
4AAA-/	2.e-/ 2.cc/
4c\	.
4c\	.
=19	=19
4DD-/	2.f/ 2.dd-/
4A-\	.
4A-\	.
=20	=20
4EE-/	4e-/ 4cc/
4G\	4d-/ 4b-/
4G\	4e-/ 4cc/
=21	=21
4AA-/	4d-/ 4b-/
4A-\	4c/ 4a-/
4A-\	4r
=22	=22
4EE-/	2.b-\ 2.gg\
*clefG2	*
4g/	.
4g/	.
=23	=23
*clefF4	*
4AA-/	2.cc\ 2.aa-\
*clefG2	*
4f/	.
4f/	.
=24	=24
!!pagebreak:original
*clefF4	*
4BB-/	4b-\ 4gg\
4dn\	4a-\ 4ff\
4d\	4b-\ 4gg\
=25	=25
*^	*
4r	2.E-\	4a-\ 4ff\
4e-/	.	4g\ 4ee-\
4d-/	.	4f/ 4dd-/
*v	*v	*
=26	=26
*	*^
4AA-/	4cc'/	[32e-\LLL
.	.	32e-\JJ_ 32ddn\
.	.	8.e-\J] 8.cc\
4c-\	4r	4dn\ 4cc-\
4cn\	4r	4e-\ 4ccn\
=27	=27	=27
4DD-/	32r	2g\
.	[16.ee-/	.
.	4.ee-/]	.
4An\	.	.
4B-\	4f/ 4dd-/	4r
*	*v	*v
=28	=28
4EE-/	4e-/ 4cc/
4G\	4d-/ 4b-/
4G\	4e-/ 4cc/
=29	=29
4AA-/	4d-/ 4b-/
4A-\	4c/ 4a-/
4A-\	4r
=30	=30
!!linebreak:original
4EE-/	4b-/ 4gg/
4g/	4an/ 4gg-/
4g/	4b-/ 4ggn/
=31	=31
*clefF4	*
4AA-/	4ddn\ 4bb-\
*clefG2	*
4f/	4dd-\ 4aan\
4f/	4cc\ 4aa-\
=32	=32
*clefF4	*
4BB-/	4b-\ 4gg\
4dn\	4a-\ 4ff\
4d\	4b-\ 4gg\
=33	=33
*^	*
4r	2.E-\	4a-\ 4ff\
4e-/	.	4g\ 4ee-\
4e-/	.	32a-/LLL
.	.	32b-/JJ
.	.	8.a-/J
*v	*v	*
=34	=34
4E-\	8g/L
.	8dd-/J
*clefG2	*
4a-/	8ee-\L
.	8gg\J
4g/	8ddd-\L
.	8fff\J
=35	=35
!!linebreak:original
4E-/	32eee-\LLL
.	32fff\JJ
.	8.eee-\J
4g/	8ddd-\L
.	8gg\J
4f/	8ff\L
.	8ee-\J
=36	=36
4E-/	8g\L
.	8dd-\J
4f/	8ee-\L
.	8gg\J
4e-/	8ddd-\L
.	8fff\J
=37	=37
4E-/	32eee-\LLL
.	32fff\JJ
.	8.eee-\J
4f/	8ddd-\L
.	8gg\J
4e-/	8ff\L
.	8ee-\J
=38	=38
4E-/	8g\L
.	8dd-\J
4a-/	8ee-\L
.	8gg\J
4g/	8ddd-\L
.	8fff\J
=39	=39
!!linebreak:original
4E-/	32eee-\LLL
.	32fff\JJ
.	8.eee-\J
4g/	8ddd-\L
.	8gg\J
4f/	8ff\L
.	8ee-\J
=40	=40
*clefF4	*
4E-\	8g\L
.	8dd-\J
4f\	8ee-\L
.	8gg\J
4e-\	8ddd-\L
.	8ggg\J
=41	=41
4AA-/	4aa-\ 4aaa-\
4c\	4r
4r	32a-/LLL
.	32b-/JJ
.	8.a-/J
=42	=42
4E-\	8g/L
.	8dd-/J
*clefG2	*
4a-/	8ee-\L
.	8gg\J
4g/	8ddd-\L
.	8fff'\J
=43	=43
!!pagebreak:original
4E-/	32eee-\LLL
.	32fff\JJ
.	8.eee-\J
4g/	8ddd-\L
.	8gg\J
4f/	8ff\L
.	8ee-\J
=44	=44
4E-/	8g\L
.	8dd-\J
4f/	8ee-\L
.	8gg\J
4e-/	8ddd-\L
.	8fff'\J
=45	=45
4E-/	32eee-\LLL
.	32fff\JJ
.	8.eee-\J
4f/	8ddd-\L
.	8gg\J
4e-/	8ff\L
.	8ee-\J
=46	=46
4E-/	8g\L
.	8dd-\J
4a-/	8ee-\L
.	8gg\J
4g/	8ddd-\L
.	8fff'\J
=47	=47
!!linebreak:original
4E-/	32eee-\LLL
.	32fff\JJ
.	8.eee-\J
4g/	8ddd-\L
.	8gg\J
4f/	8ff\L
.	8ee-\J
=48	=48
*clefF4	*
*^	*
4r	4E-\	8g\L
.	.	8dd-\J
2d-/	4f\	8ee-\L
.	.	8gg\J
.	4e-\	8ddd-\L
.	.	8ggg\J
*v	*v	*
=49	=49
4AA-/	4aa-\ 4aaa-\
4c\	4r
4r	4e-/
=50	=50
4AAA-/	2.e-/ 2.cc/
4c\	.
4c\	.
=51	=51
4DD-/	2.f/ 2.dd-/
4A-\	.
4A-\	.
=52	=52
4EE-/	4e-/ 4cc/
4G\	4d-/ 4b-/
4G\	4e-/ 4cc/
=53	=53
4AA-/	4d-/ 4b-/
4A-\	4c/ 4a-/
4A-\	4r
=54	=54
!!linebreak:original
4EE-/	2.b-\ 2.gg\
*clefG2	*
4g/	.
4g/	.
=55	=55
*clefF4	*
4AA-/	2.cc\ 2.aa-\
*clefG2	*
4f/	.
4c/ 4f/	.
=56	=56
*clefF4	*
4BB-/	4b-\ 4gg\
4dn\	4a-\ 4ff\
4d\	4b-\ 4gg\
=57	=57
*^	*
4r	2.E-\	4a-\ 4ff\
4e-/	.	4g\ 4ee-\
4d-/	.	4f/ 4dd-/
*v	*v	*
=58	=58
*	*^
4AA-/	4cc'/	[32e-\LLL
.	.	32e-\JJ_ 32dd-\
.	.	8.e-\J] 8.cc\
4c-\	4r	4dn\ 4cc-\
4cn\	4r	4e-\ 4ccn\
*	*v	*v
=59	=59
4DD-/	2g\ 2ee-\
4An\	.
4B-\	4f/ 4dd-/
=60	=60
!!linebreak:original
4EE-/	4e-/ 4cc/
4G\	4d-/ 4b-/
4G\	4e-/ 4cc/
=61	=61
4AA-/	4d-/ 4b-/
4A-\	4c/ 4a-/
4A-\	4r
=62	=62
*	*^
4EE-/	48r	4b-\
.	48gg/LLL	.
.	48aa-/JJ	.
.	8.gg/J	.
*clefG2	*	*
4g/	4an/ 4gg-/	4r
4g/	4b-/ 4ggn/	4r
*	*v	*v
=63	=63
*clefF4	*
4AA-/	4ddn\ 4bb-\
*clefG2	*
4f/	4dd-\ 4aan\
4f/	4cc\ 4aa-\
=64	=64
*clefF4	*
4BB-/	4b-\ 4gg\
4dn\	4a-\ 4ff\
4d\	4b-\ 4gg\
=65	=65
*^	*
4r	2.E-\	4a-\ 4ff\
4e-/	.	4g\ 4ee-\
4e-/	.	32a-/LLL
.	.	32b-/JJ
.	.	8.a-/J
*v	*v	*
=66	=66
!!pagebreak:original
4E-\	8g/L
.	8dd-/J
*clefG2	*
4a-/	8ee-\L
.	8gg\J
4g/	8ddd-\L
.	8fff\J
=67	=67
4E-/	32eee-\LLL
.	32fff\JJ
.	8.eee-\J
4g/	8ddd-\L
.	8gg\J
4f/	8ff\L
.	8ee-\J
=68	=68
4E-/	8g\L
.	8dd-\J
4f/	8ee-\L
.	8gg\J
4e-/	8ddd-\L
.	8fff\J
=69	=69
4E-/	32eee-\LLL
.	32fff\JJ
.	8.eee-\J
4f/	8ddd-\L
.	8gg\J
4e-/	8ff\L
.	8ee-\J
=70	=70
4E-/	8g\L
.	8dd-\J
4a-/	8ee-\L
.	8gg\J
4g/	8ddd-\L
.	8fff\J
=71	=71
!!linebreak:original
*^	*
4E-/	4r	32eee-\LLL
.	.	32fff\JJ
.	.	8.eee-\J
4g/	2B-\	8ddd-\L
.	.	8gg\J
4f/	.	8ff\L
.	.	8ee-\J
*v	*v	*
=72	=72
*clefF4	*
*^	*
4r	4E-\	8g\L
.	.	8dd-\J
2d-/	4f\	8ee-\L
.	.	8gg\J
.	4e-\	8ddd-\L
.	.	8ggg\J
*v	*v	*
=73	=73
4AA-/	4aa-\ 4aaa-\
4E-\ 4c\	4r
4r	32a-/LLL
.	32b-/JJ
.	8.a-/J
=74	=74
4E-\	8g/L
.	8dd-/J
*clefG2	*
4a-/	8ee-\L
.	8gg\J
4g/	8ddd-\L
.	8fff'\J
=75	=75
!!linebreak:original
4E-/	32eee-\LLL
.	32fff\JJ
.	8.eee-\J
4g/	8ddd-\L
.	8gg\J
4f/	8ff\L
.	8ee-\J
=76	=76
4E-/	8g\L
.	8dd-\J
4f/	8ee-\L
.	8gg\J
4e-/	8ddd-\L
.	8fff'\J
=77	=77
4E-/	32eee-\LLL
.	32fff\JJ
.	8.eee-\J
4f/	8ddd-\L
.	8gg\J
4e-/	8ff\L
.	8ee-\J
=78	=78
4E-/	8g\L
.	8dd-\J
4a-/	8ee-\L
.	8gg\J
4g/	8ddd-\L
.	8fff'\J
=79	=79
!!linebreak:original
*^	*
4E-/	4r	32eee-\LLL
.	.	32fff\JJ
.	.	8.eee-\J
4g/	2d-\	8ddd-\L
.	.	8gg\J
4f/	.	8ff\L
.	.	8ee-\J
*v	*v	*
=80	=80
*clefF4	*
4E-\	8g\L
.	8dd-\J
4f\	8ee-\L
.	8gg\J
4e-\	8ddd-\L
.	8ggg\J
=81	=81
4AA-/	4aa-\ 4aaa-\
4c\	4r
4r	[4A-/
=82	=82
4AA-/	2A-/]
4G-\ 4c\	.
4c\	[4a-/
=83	=83
4D-\	4a-/]
4d-\	8a-/L
.	8a-/J
4f\	4a-/
=84	=84
!!pagebreak:original
4AA-/	32a-/LLL
.	32b-/JJ
.	8.a-/J
*clefG2	*
4g-/	8g/L
.	8a-/J
4g-/	8dd-\L
.	8ee-\J
=85	=85
*clefF4	*
4D-\	4ff\
4f\	4r
4r	[4B-/
=86	=86
4BB-/	2B-/]
4dn\	.
4d\	[4b-\
=87	=87
4E-\	4b-\]
4e-\	8b-\L
.	8b-\J
*clefG2	*
4e-/ 4g/	4b-\
=88	=88
4r	32b-\LLL
.	32cc\JJ
.	8.b-\J
4dn/ 4a-/	8an/L
.	8b-/J
4d/ 4a-/	8ee-\L
.	8ff\J
=89	=89
4r	4gg\
4e-/ 4g/	4r
4r	[4e-/ [4ee-/
=90	=90
!!linebreak:original
4E-/	2e-/] 2ee-/]
4e-/ 4g/	.
4g/	[4ee-\ [4eee-\
=91	=91
4e-/	4ee-\] 4eee-\]
4cc\	8ee-\L 8eee-\
.	8ee-\J 8eee-\
4cc\	4ee-\ 4eee-\
=92	=92
4e-/	32eee-\LLL
.	32fff\JJ
.	8.eee-\J
4dd-\	8dddn\L
.	8eee-\J
4dd-\	8aa-\L 8aaa-\
.	8bb-\J 8bbb-\
=93	=93
4A-/	4.ccc\ 4.aaa-\ 4.cccc\
4cc\	.
.	8ccc'\ 8aaa-'\ 8cccc'\
4r	8.ccc'\L 8.aaa-'\ 8.cccc'\
.	16ccc'\Jk 16aaa-'\ 16cccc'\
=94	=94
!!linebreak:original
*clefF4	*
4D-\	4.ccc\ 4.aaa-\ 4.cccc\
4d-\	.
.	8bb-'\ 8ggg'\ 8bbb-'\
*clefG2	*
4f/	8.bb-'\L 8.ggg'\ 8.bbb-'\
.	16aa-'\Jk 16fff'\ 16aaa-'\
=95	=95
4a-/	4aa-\ 4fff\ 4aaa-\
4f/	8r
.	8gg'\ 8eee-'\ 8ggg'\
4d-/	8.gg'\L 8.eee-'\ 8.ggg'\
.	16ff'\Jk 16ddd-'\ 16fff'\
=96	=96
4E-/	4.ff\ 4.ddd-\ 4.fff\
4g/	.
.	8ff'\ 8ddd-'\ 8fff'\
4d-/	8.ff'\L 8.ddd-'\ 8.fff'\
.	16g\Jk 16dd-\ 16gg\
=97	=97
*clefF4	*
4AA-/	4a-\ 4cc\ 4aa-\
4c\	4r
4r	[4A-/
=98	=98
4AA-/	4A-/]
4E-\ 4c\	[4.a-/
4g-\	.
.	16a-\LL]
.	16aa-\JJ
=99	=99
4D-\	[4.a-/
4d-\	.
.	16a-/LL]
.	16a-/JJ
4f\	4a-/
=100	=100
!!linebreak:original
4AA-/	32a-/LLL
.	32b-/JJ
.	[8.a-/J
*clefG2	*
4c/	4a-/]
4c/ 4g-/	16g/LL
.	16a-/
.	16b-/
.	16cc/JJ
=101	=101
*clefF4	*
4D-\	16dd-\LL
.	16ee-\
.	16ff\
.	16gg-\JJ
4d-\	16aa-\LL
.	16bb-\
.	24ccc\
.	24ddd-\
.	24eee-\JJ
4f\	4fff\
=102	=102
4BB-/	4B-/
4dn\	[4.b-\
4B-\ 4a-\	.
.	16b-\LL]
.	16bb-\JJ
=103	=103
4E-\	[4.b-\
*clefG2	*
4e-/	.
.	16b-\LL]
.	16b-\JJ
4g/	4b-\
=104	=104
!!pagebreak:original
*clefF4	*
4BB-/	32b-\LLL
.	32cc\JJ
.	[8.b-\J
4dn\	4b-\]
4a-\	16an\LL
.	16b-\
.	16cc\
.	16ddn\JJ
=105	=105
4E-\	16ee-\LL
.	16ff\
.	16gg\
.	16aa-\JJ
4e-\	16bb-\LL
.	16ccc\
.	24dddn\
.	24eee-\
.	24fff\JJ
*clefG2	*
4g/	4ggg\
=106	=106
4E-/	4e-/ 4ee-/
4g/	4ee-\ 4eee-\
4g/	8r
.	16r
.	16eee-\ 16eeee-\
=107	=107
4E-/ 4e-/	4ee-\ 4eee-\
4a-\ 4cc\	8r
.	16r
.	16ee-\ 16eee-\
4a-\ 4cc\	4ee-\ 4eee-\
=108	=108
!!linebreak:original
4e-/	32eee-\LLL
.	32fff\JJ
.	8.eee-\J
4dd-\	8dddn\L
.	8eee-\J
4dd-\	8aa-\L 8aaa-\
.	8bb-\J 8bbb-\
=109	=109
*	*MM162
4A-/	4.ccc\ 4.aaa-\ 4.cccc\
4cc\	.
.	8ccc'\ 8aaa-'\ 8cccc'\
4r	8.ccc'\L 8.aaa-'\ 8.cccc'\
.	16ccc'\Jk 16aaa-'\ 16cccc'\
=110	=110
*clefF4	*
4D-\	4ccc\ 4aaa-\ 4cccc\
4d-\	8r
.	8bb-'\ 8ggg'\ 8bbb-'\
*clefG2	*
4f/	8.bb-'\L 8.ggg'\ 8.bbb-'\
.	16aa-'\Jk 16fff'\ 16aaa-'\
=111	=111
4a-/	4aa-\ 4fff\ 4aaa-\
4d-/ 4f/	8r
.	8gg'\ 8eee-'\ 8ggg'\
*clefF4	*
4B-\ 4d-\	8.gg'\L 8.eee-'\ 8.ggg'\
.	16ff'\Jk 16ddd-'\ 16fff'\
=112	=112
!!linebreak:original
4E-\	4.ff\ 4.ddd-\ 4.fff\
4e-\	.
.	8ff'\ 8ddd-'\ 8fff'\
4d-\	8.ff'\L 8.ddd-'\ 8.fff'\
.	16g\Jk 16dd-\ 16gg\
=113	=113
*	*MM180
4AA-/	4a-\ 4cc\ 4aa-\
4A-\ 4c\	4r
4r	4a-/
=114	=114
4AA-/	2g-/ 2b-/
*clefG2	*
4e-/	.
4e-/	4c/ 4a-/
=115	=115
*	*^
4e-/	4.g-/ 4.b-/	4r
4e-/	.	8r
.	16r	8c\ 8a-\
.	24r	.
.	48cc/	.
4e-/	8.g-'/L 8.b-'/	4r
.	16c/Jk 16a-/	.
*	*v	*v
=116	=116
2.r	4.d-/ 4.f/
.	8d-/ 8f/
.	8.f'/L 8.a-'/
.	16f/Jk 16dd-/
=117	=117
4r	2a-\ 2ff\
*clefF4	*
4B-\	.
4A-\	4a-\ 4ff\
=118	=118
!!linebreak:original
*	*^
4AA-/	[8ff/L	4a-'\
.	8g/J 8ff/]	.
4c\	32ee-/LLL	4g-\
.	32ff/JJ	.
.	8.ee-'/J	.
4c\	4f/ 4ddn/	4r
*	*v	*v
=119	=119
4AA-/	4g-\ 4ee-\
4c\	4b-\ 4gg-\
4A-\ 4c\	4a-\ 4ff\
=120	=120
*^	*
4r	2.D-\	4g-\ 4ee-\
4d-/	.	4f/ 4dd-/
4d-/	.	4en/ 4b-/
=121	=121	=121
4r	2.D-\	4.f/ 4.a-/
4d-/	.	.
.	.	8f'/ 8a-'/
4d-/	.	8.f'/L 8.a-'/
.	.	16f/Jk 16a-/
*v	*v	*
=122	=122
4AA-/	4g-/ 4b-/
4e-\	8r
.	8c/ 8a-/
4A-\ 4e-\	8.g-'/L 8.b-'/
.	16c/Jk 16a-/
=123	=123
!!pagebreak:original
4AA-/	4g-/ 4b-/
4e-\	8r
.	[16c/LL [16a-/
.	24c/] 24a-/]
.	48cc/JJk
4e-\	8.g-'/L 8.b-'/
.	16c/Jk 16a-/
=124	=124
*^	*
4r	2D-\	4.d-/ 4.f/
4d-/	.	.
.	.	8f/ 8a-/
4C-/	4r	8.a-'\L 8.dd-'\
.	.	16a-\Jk 16dd-\ 16ff\
*v	*v	*
=125	=125
4BB-/	4.a-\ 4.ddn\ 4.aa-\
*clefG2	*
4f/	.
.	8dd'\ 8aa-'\
4r	8.dd'\L 8.aa-'\
.	16dd'\Jk 16aa-'\
=126	=126
4E-/	4dd-\ 4aa-\
4g/	8r
.	8dd-\ 8gg\
4g/	8.dd-'\L 8.ee-'\
.	16dd-\Jk 16ff\
=127	=127
!!linebreak:original
*clefF4	*
4AA-/	4dd-\ 4gg-\
*clefG2	*
4g-/	8r
.	8cc\ 8gg-\
4c/ 4g-/	8.g'\L 8.gg-'\
.	16a-\Jk 16gg-\
=128	=128
*clefF4	*
4AA-/	4an\ 4gg-\
4c\	8r
.	8a-'\ 8ff'\
4c\	8.a-'\L 8.ff'\
.	16g-\Jk 16ee-\
=129	=129
*^	*
4r	2.D-\	4g-\ 4ee-\
4d-/	.	8r
.	.	8f'/ 8dd-'/
4d-/	.	8.f'/L 8.cc'/
.	.	16f/Jk 16b-/
*v	*v	*
=130	=130
4AA-/	2g-/ 2b-/
*clefG2	*
4e-/	.
4e-/	4c/ 4a-/
=131	=131
*	*^
4e-/	4.g-/ 4.b-/	4r
4e-/	.	8r
.	16r	8c\ 8a-\
.	24r	.
.	48cc/	.
4e-/	8.g-'/L 8.b-'/	4r
.	16c/Jk 16a-/	.
*	*v	*v
=132	=132
!!linebreak:original
2.r	4.d-/ 4.f/
.	8d-/ 8f/
.	8.f'/L 8.a-'/
.	16f/Jk 16dd-/
=133	=133
4r	2a-\ 2ff\
*clefF4	*
4B-\	.
4A-\	4a-\ 4ff\
=134	=134
*	*^
4AA-/	[8ff/L	4a-'\
.	8g/J 8ff/]	.
4c\	32ee-/LLL	4g-\
.	32ff/JJ	.
.	8.ee-'/J	.
4c\	4f/ 4ddn/	4r
*	*v	*v
=135	=135
4AA-/	4g-\ 4ee-\
4c\	4b-\ 4gg-\
4c\	4a-\ 4ff\
=136	=136
*^	*
4r	2.D-\	4g-\ 4ee-\
4d-/	.	4f/ 4dd-/
4d-/	.	4en/ 4b-/
*v	*v	*
=137	=137
4r	4.f/ 4.a-/
4d-\	.
.	8f'/ 8a-'/
4d-\	8.f'/L 8.a-'/
.	16f/Jk 16a-/
=138	=138
!!linebreak:original
4AA-/	4g-/ 4b-/
4e-\	8r
.	8c/ 8a-/
4e-\	8.g-'/L 8.b-'/
.	16c/Jk 16a-/
=139	=139
*	*^
4AA-/	4r	4g-\ 4b-\
4e-\	4r	8r
.	.	[16c\LL [16a-\
.	.	24c\] 24a-\]
.	.	[48cc\JJk
4e-\	4g-'/ 4b-'/	8.cc\L]
.	.	16c\Jk 16a-\
*	*v	*v
=140	=140
4D-\	4.d-/ 4.f/
4d-\	.
.	8f/ 8a-/
4r	8.a-'\L 8.dd-'\
.	16a-\Jk 16dd-\ 16ff\
=141	=141
4BB-/	4.a-\ 4.ddn\ 4.aa-\
*clefG2	*
4f/	.
.	8dd'\ 8aa-'\
4r	8.dd'\L 8.aa-'\
.	16dd'\Jk 16aa-'\
=142	=142
4E-/	4dd-\ 4aa-\
4g/	8r
.	8dd-\ 8gg\
4d-/ 4g/	8.dd-'\L 8.ee-'\
.	16dd-\Jk 16ff\
=143	=143
!!pagebreak:original
*clefF4	*
4AA-/	4dd-\ 4gg-\
*clefG2	*
4g-/	8r
.	8cc\ 8gg-\
4g-/	8.g'\L 8.gg-'\
.	16a-\Jk 16gg-\
=144	=144
*clefF4	*
4AA-/	4an\ 4gg-\
4E-\ 4c\	8r
.	8a-'\ 8ff'\
4c\	8.a-'\L 8.ff'\
.	16g-\Jk 16ee-\
=145	=145
*^	*^
4r	2D-\	4f/ 4dd-/	4r
4d-/	.	4r	4r
4r	4r	4r	[4f\
*v	*v	*	*
=146	=146	=146
4FF/	4.ee-/ 4.gg-/	2.f\_
4An\	.	.
.	8ee-/ 8gg-/	.
4A\	4ee-/ 4gg-/	.
=147	=147	=147
4FF/	4ee-/ 4gg-/	2f\]
4B-\	4dd-/ 4ff/	.
4F\ 4B-\	4d-/ 4b-/ 4dd-/	4r
*	*v	*v
=148	=148
4FF/	2e-/ 2cc/ 2ee-/
4G-\ 4B-\	.
4B-\	4d-/ 4b-/ 4dd-/
=149	=149
!!linebreak:original
4FF/	4c/ 4an/ 4cc/
4An\	4r
4C\ 4A\	[4e-/
=150	=150
4EEn/	2e-/]
4B-\	.
4B-\	4d-/
=151	=151
*	*^
4FF/	4c/	4r
4An\	4r	4r
4A\	4r	[4e-\
=152	=152	=152
4EEn/	2cc/	2e-\]
4B-\	.	.
4B-\	4d-/ 4b-/	4r
=153	=153	=153
4FF/	2.r	4c\ 4an\
4An\	.	4r
4A\	.	[4g-\
*	*v	*v
=154	=154
!!linebreak:original
*	*^
4FF/	2gg-'/	12g-\LK_ [12ee-\
.	.	6g-\J_ 6ee-\_
4c\	.	24g-\LLL] 24ee-\]
.	.	[24g-\J [24gg-\
.	.	12g-\] 12ee-\ 12gg-\]
.	.	12g-\JJ 12ee-\ 12gg-\
4An\ 4c\	4r	24g-\LLL 24ee-\ 24gg-\
.	.	[24g-\J [24gg-\
.	.	12g-\] 12ee-\ 12gg-\]
.	.	12g-\JJ 12ee-\ 12gg-\
*	*v	*v
=155	=155
4FF/	4g-\ 4ee-\ 4gg-\
4d-\	4f\ 4dd-\ 4ff\
4B-\	4d-/ 4b-/ 4dd-/
=156	=156
4FF/	4.e-/ 4.cc/ 4.ee-/
4B-\	.
.	8d-/ 8b-/ 8dd-/
4B-\	8e-/L 8cc/ 8ee-/
.	8d-/J 8b-/ 8dd-/
=157	=157
4FF/	4c/ 4an/ 4cc/
4An\	4r
4A\	[4e-/
=158	=158
4EEn/	4.e-/]
4B-\	.
.	8d-/
4B-\	8e-/L
.	8d-/J
=159	=159
!!linebreak:original
*	*^
4FF/	4c/	4r
4An\	4r	4r
4A\	4r	[4e-\
=160	=160	=160
4EEn/	4cc/	4e-\]
*	*v	*v
*	*MM160
*	*^
4B-\	8dn/L 8cc-/	4r
.	8d-/J 8b-/	.
*	*v	*v
*	*MM133
*	*^
4G-\ 4B-\	8e-/L 8ccn/	4r
.	8d-/J 8b-/	.
*	*v	*v
=161	=161
4FF/	4c/ 4an/
4An\	4r
*	*MM180
4r	4f/
=162	=162
4AA-/	2g-/ 2b-/
*clefG2	*
4e-/	.
4e-/	4c/ 4a-/
=163	=163
*	*^
4e-/	4.g-/ 4.b-/	4r
4e-/	.	8r
.	16r	8c\ 8a-\
.	24r	.
.	48cc/	.
4e-/	8.g-'/L 8.b-'/	4r
.	16c/Jk 16a-/	.
*	*v	*v
=164	=164
2.r	4.d-/ 4.f/
.	8d-/ 8f/
.	8.f'/L 8.a-'/
.	16f/Jk 16dd-/
=165	=165
!!pagebreak:original
4r	2a-\ 2ff\
*clefF4	*
4B-\	.
4A-\	4a-\ 4ff\
=166	=166
*	*^
4AA-/	[8ff/L	4a-'\
.	8g/J 8ff/]	.
4c\	32ee-/LLL	4g-\
.	32ff/JJ	.
.	8.ee-'/J	.
4c\	4f/ 4ddn/	4r
*	*v	*v
=167	=167
4AA-/	4g-\ 4ee-\
4c\	4b-\ 4gg-\
4c\	4a-\ 4ff\
=168	=168
*^	*
4r	2.D-\	4g-\ 4ee-\
4d-/	.	4f/ 4dd-/
4d-/	.	4en/ 4b-/
=169	=169	=169
4r	2.D-\	4.f/ 4.a-/
4d-/	.	.
.	.	8f'/ 8a-'/
4d-/	.	8.f'/L 8.a-'/
.	.	16f/Jk 16a-/
*v	*v	*
=170	=170
4AA-/	4g-/ 4b-/
4e-\	8r
.	8c/ 8a-/
4e-\	8.g-'/L 8.b-'/
.	16c/Jk 16a-/
=171	=171
!!linebreak:original
4AA-/	4g-/ 4b-/
4e-\	8r
.	[16c/LL [16a-/
.	32c/L] 32a-/_
.	96a-/K]
.	48cc/JJJ
4e-\	8.g-'/L 8.b-'/
.	16c/Jk 16a-/
=172	=172
*^	*
4r	2D-\	4.d-/ 4.f/
4d-/	.	.
.	.	8f/ 8a-/
4C-/	4r	8.a-'\L 8.dd-'\
.	.	16a-\Jk 16dd-\ 16ff\
*v	*v	*
=173	=173
4BB-/	4.a-\ 4.ddn\ 4.aa-\
*clefG2	*
4f/	.
.	8dd\ 8aa-\
4r	8.dd'\L 8.aa-'\
.	16dd\Jk 16aa-\
=174	=174
4E-/	4dd-\ 4aa-\
4g/	8r
.	8dd-\ 8gg\
4g/	8.dd-'\L 8.ee-'\
.	16dd-\Jk 16ff\
=175	=175
!!linebreak:original
*clefF4	*
4AA-/	4dd-\ 4gg-\
*clefG2	*
4g-/	8r
.	8cc\ 8gg-\
4g-/	8.g'\L 8.gg-'\
.	16a-\Jk 16gg-\
=176	=176
*clefF4	*
4AA-/	4an\ 4gg-\
4c\	8r
.	8a-'\ 8ff'\
4c\	8.a-'\L 8.ff'\
.	16g-\Jk 16ee-\
=177	=177
*^	*
4r	2D-\	4f/ 4dd-/
4d-/	.	4r
*	*	*clefF4
4r	4r	[4D-\
*v	*v	*
=178	=178
4DD-/	2D-\]
4c-\	.
4c-\	[4d-\
=179	=179
4GG-/	4d-\]
4B-\	8d-\L
*	*clefG2
.	8d-\J
4B-\	4d-/
=180	=180
!!linebreak:original
4FF/	32d-/LLL
.	32e-/JJ
.	8.d-/J
4A-\ 4c-\	8c/L
.	8d-/J
4c-\	8g-/L
.	8a-/J
=181	=181
4GG-/	4b-\
4B-\	4r
*	*clefF4
4r	[4E-\
=182	=182
4GG/	2E-\]
4d-\	.
4d-\	[4e-\
=183	=183
4AA-/	4e-\]
4A-\ 4c\	8e-\L
*	*clefG2
.	8e-\J
4c\	4e-/
=184	=184
4GG/	32e-/LLL
.	32f/JJ
.	8.e-/J
4d-\	8dn/L
.	8e-/J
4d-\	8a-/L
.	8b-/J
=185	=185
4AA-/	4cc\
4c\	4r
4r	[4A-/ [4a-/
=186	=186
!!pagebreak:original
4AA-/	2A-/] 2a-/]
*clefG2	*
4c/	.
4g-/	[4a-\ [4aa-\
=187	=187
*clefF4	*
4D-\	4a-\] 4aa-\]
4d-\	8a-\L 8aa-\
.	8a-\J 8aa-\
*clefG2	*
4f/	4a-\ 4aa-\
=188	=188
4A-/	32aa-\LLL
.	32bb-\JJ
.	8.aa-\J
4c/ 4g-/	8gg\L
.	8aa-\J
4c/ 4g-/	8dd-\L 8ddd-\
.	8ee-\J 8eee-\
=189	=189
*clefF4	*
4D-\	4.ff\ 4.ddd-\ 4.fff\
4A-\ 4f\ 4a-\	.
.	8ff\ 8ddd-\ 8fff\
4r	8.ff'\L 8.ddd-'\ 8.fff'\
.	16ff'\Jk 16ddd-'\ 16fff'\
=190	=190
4GG-/	4.ff\ 4.ddd-\ 4.fff\
*clefG2	*
4e-/	.
.	8ee-\ 8ccc\ 8eee-\
4g-/	8.ee-'\L 8.ccc'\ 8.eee-'\
.	16dd-\Jk 16bb-\ 16ddd-\
=191	=191
!!linebreak:original
4b-\	4dd-\ 4bb-\ 4ddd-\
4g-/	8r
.	8cc\ 8aa-\ 8ccc\
4e-/	8.cc'\L 8.aa-'\ 8.ccc'\
.	16b-'\Jk 16gg-'\ 16bb-'\
=192	=192
*clefF4	*
4A-\	4.b-\ 4.gg-\ 4.bb-\
4c\	.
.	8b-\ 8gg-\ 8bb-\
4c\	8.b-'\L 8.gg-'\ 8.bb-'\
.	16c\Jk 16g-\ 16cc\
=193	=193
4D-\	4d-/ 4f/ 4dd-/
4d-\	4r
*	*clefF4
4r	[4D-\
=194	=194
4DD-/	4D-\]
*	*clefG2
4c-\	[4.d-/
4c-\	.
.	16d-/LL]
.	16dd-/JJ
=195	=195
4GG-/	[4.d-/
4B-\	.
.	16d-/LL]
.	16d-/JJ
4B-\	4d-/
=196	=196
!!linebreak:original
4FF/	32d-/LLL
.	32e-/JJ
.	[8.d-/J
4c-\	4d-/]
4c-\	16c/LL
.	16d-/
.	16e-/
.	16f/JJ
=197	=197
4GG-/	16g-/LL
.	16a-/
.	16b-/
.	16cc-/JJ
4G-\ 4B-\	16dd-\LL
.	16ee-\
.	24ff\
.	24gg-\
.	24aa-\JJ
4r	4bb-\
=198	=198
*	*clefF4
4GG/	4E-\
4d-\	[4.e-\
4d-\	.
.	16e-\LL]
*	*clefG2
.	16ee-\JJ
=199	=199
4AA-/	[4.e-/
4c\	.
.	16e-/LL]
.	16e-/JJ
4A-\ 4c\	4e-/
=200	=200
!!linebreak:original
4EE-/	32e-/LLL
.	32f/JJ
.	[8.e-/J
4d-\	4e-/]
4d-\	16dn/LL
.	16e-/
.	16f/
.	16g/JJ
=201	=201
4AA-/	16a-\LL
.	16b-\
.	16cc\
.	16dd-\JJ
4c\	16ee-\LL
.	16ff\
.	24gg\
.	24aa-\
.	24bb-\JJ
4r	4ccc\
=202	=202
4AA-/	4A-/ 4a-/
*clefG2	*
4c/	4a-\ 4aa-\
4g-/	8r
.	16r
.	16aa-\ 16aaa-\
=203	=203
*clefF4	*
4D-\	4a-\ 4aa-\
4d-\	8r
.	16r
.	16a-\ 16aa-\
*clefG2	*
4d-/ 4f/	4a-\ 4aa-\
=204	=204
!!pagebreak:original
4A-/	32aa-\LLL
.	32bb-\JJ
.	8.aa-\J
4c/ 4g-/	8gg\L
.	8aa-\J
4c/ 4g-/	8dd-\L 8ddd-\
.	8ee-\J 8eee-\
=205	=205
*clefF4	*
4D-\	4.ff\ 4.ddd-\ 4.fff\
4a-\	.
.	8ff\ 8ddd-\ 8fff\
4r	8.ff'\L 8.ddd-'\ 8.fff'\
.	16ff\Jk 16ddd-\ 16fff\
=206	=206
4GGG-/ 4GG-/	4ff\ 4ddd-\ 4fff\
*clefG2	*
4e-/	8r
.	8ee-\ 8ccc\ 8eee-\
4g-/	8.ee-'\L 8.ccc'\ 8.eee-'\
.	16dd-'\Jk 16bb-'\ 16ddd-'\
=207	=207
4b-\	4dd-\ 4bb-\ 4ddd-\
4g-/	8r
.	8cc\ 8aa-\ 8ccc\
4e-/	8.cc'\L 8.aa-'\ 8.ccc'\
.	16b-\Jk 16gg-\ 16bb-\
=208	=208
!!linebreak:original
*clefF4	*
4AA-/	4.b-\ 4.gg-\ 4.bb-\
4c\	.
.	8b-\ 8gg-\ 8bb-\
4c\	8.b-'\L 8.gg-'\ 8.bb-'\
.	16c\Jk 16g-\ 16cc\
=209	=209
4DD-/	4d-/ 4f/ 4dd-/
4d-\	4r
4r	4e-/
=210	=210
4AAA-/	2.e-/ 2.cc/
4c\	.
4c\	.
=211	=211
4DD-/	2.f/ 2.dd-/
4A-\	.
4A-\	.
=212	=212
4EE-/	4e-/ 4cc/
4G\	4d-/ 4b-/
4G\	4e-/ 4cc/
=213	=213
4AA-/	4d-/ 4b-/
4A-\	4c/ 4a-/
4A-\	4r
=214	=214
4EE-/	2.b-\ 2.gg\
*clefG2	*
4g/	.
4G/ 4g/	.
=215	=215
!!linebreak:original
*clefF4	*
4AA-/	2.cc\ 2.aa-\
*clefG2	*
4f/	.
4f/	.
=216	=216
*clefF4	*
4BB-/	4b-\ 4gg\
4dn\	4a-\ 4ff\
4d\	4b-\ 4gg\
=217	=217
*^	*
4r	2.E-\	4a-\ 4ff\
4e-/	.	4g\ 4ee-\
4d-/	.	4f/ 4dd-/
*v	*v	*
=218	=218
*	*^
4AA-/	32cc/LLL	4e-\
.	32dd-/JJ	.
.	8.cc/J	.
4c-\	4dn/ 4cc-/	4r
4cn\	4e-/ 4ccn/	4r
=219	=219	=219
4DD-/	32r	2g\
.	[16.ee-/	.
.	4.ee-/]	.
4An\	.	.
4B-\	4f/ 4dd-/	4r
*	*v	*v
=220	=220
4EE-/	4e-/ 4cc/
4G\	4d-/ 4b-/
4G\	4e-/ 4cc/
=221	=221
4AA-/	4d-/ 4b-/
4E-\ 4A-\	4c/ 4a-/
4A-\	4r
=222	=222
!!linebreak:original
*	*^
4EE-/	48r	4b-\
.	48gg/LLL	.
.	48aa-/JJ	.
.	8.gg/J	.
*clefG2	*	*
4g/	4an/ 4gg-/	4r
4g/	4b-/ 4ggn/	4r
*	*v	*v
=223	=223
*clefF4	*
4AA-/	4ddn\ 4bb-\
*clefG2	*
4f/	4dd-\ 4aan\
4c/ 4f/	4cc\ 4aa-\
=224	=224
*clefF4	*
4BB-/	4b-\ 4gg\
4dn\	4a-\ 4ff\
4d\	4b-\ 4gg\
=225	=225
*^	*
4r	2.E-\	4a-\ 4ff\
4e-/	.	4g\ 4ee-\
4e-/	.	32a-/LLL
.	.	32b-/JJ
.	.	8.a-/J
*v	*v	*
=226	=226
4E-\	8g/L
.	8dd-/J
*clefG2	*
4a-/	8ee-\L
.	8gg\J
4g/	8ddd-\L
.	8fff\J
=227	=227
!!pagebreak:original
4E-/	32eee-\LLL
.	32fff\JJ
.	8.eee-\J
4g/	8ddd-\L
.	8gg\J
4f/	8ff\L
.	8ee-\J
=228	=228
4E-/	8g\L
.	8dd-\J
4f/	8ee-\L
.	8gg\J
4e-/	8ddd-\L
.	8fff\J
=229	=229
4E-/	32eee-\LLL
.	32fff\JJ
.	8.eee-\J
4f/	8ddd-\L
.	8gg\J
4e-/	8ff\L
.	8ee-\J
=230	=230
4E-/	8g\L
.	8dd-\J
4a-/	8ee-\L
.	8gg\J
4g/	8ddd-\L
.	8fff\J
=231	=231
!!linebreak:original
4E-/	32eee-\LLL
.	32fff\JJ
.	8.eee-\J
4g/	8ddd-\L
.	8gg\J
4f/	8ff\L
.	8ee-\J
=232	=232
*clefF4	*
4E-\	8g\L
.	8dd-\J
4f\	8ee-\L
.	8gg\J
4e-\	8ddd-\L
.	8ggg\J
=233	=233
4AA-/	4aa-\ 4aaa-\
4c\	4r
4r	32a-/LLL
.	32b-/JJ
.	8.a-/J
=234	=234
4E-\	8g/L
.	8dd-/J
*clefG2	*
4a-/	8ee-\L
.	8gg\J
4g/	8ddd-\L
.	8fff'\J
=235	=235
!!linebreak:original
4E-/	32eee-\LLL
.	32fff\JJ
.	8.eee-\J
4g/	8ddd-\L
.	8gg\J
4f/	8ff\L
.	8ee-\J
=236	=236
4E-/	8g\L
.	8dd-\J
4f/	8ee-\L
.	8gg\J
4e-/	8ddd-\L
.	8fff'\J
=237	=237
4E-/	32eee-\LLL
.	32fff\JJ
.	8.eee-\J
4f/	8ddd-\L
.	8gg\J
4e-/	8ff\L
.	8ee-\J
=238	=238
4E-/	8g\L
.	8dd-\J
4a-/	8ee-\L
.	8gg\J
4g/	8ddd-\L
.	8fff'\J
=239	=239
!!linebreak:original
4E-/	32eee-\LLL
.	32fff\JJ
.	8.eee-\J
4g/	8ddd-\L
.	8gg\J
4f/	8ff\L
.	8ee-\J
=240	=240
*clefF4	*
4E-\	8g\L
.	8dd-\J
4f\	8ee-\L
.	8gg\J
4e-\	8ddd-\L
.	8ggg\J
=241	=241
4AA-/	4aa-\ 4aaa-\
4c\	4r
4r	[4A-/
=242	=242
4AA-/	2A-/]
4G-\ 4c\	.
4G-\ 4A-\ 4c\	[4a-/
=243	=243
4D-\	4a-/]
4d-\	8a-/L
.	8a-/J
4f\	4a-/
=244	=244
!!pagebreak:original
4AA-/	32a-/LLL
.	32b-/JJ
.	8.a-/J
*clefG2	*
4g-/	8g/L
.	8a-/J
4g-/	8dd-\L
.	8ee-\J
=245	=245
*clefF4	*
4D-\	4ff\
4f\	4r
4r	[4B-/
=246	=246
4BB-/	2B-/]
4A-\ 4dn\	.
4A-\ 4B-\ 4d\	[4b-\
=247	=247
4E-\	4b-\]
4e-\	8b-\L
.	8b-\J
4g\	4b-\
=248	=248
4BB-/	32b-\LLL
.	32cc\JJ
.	8.b-\J
*clefG2	*
4a-/	8an/L
.	8b-/J
4a-/	8ee-\L
.	8ff\J
=249	=249
4E-/	4gg\
4g/	4r
4r	[4e-/ [4ee-/
=250	=250
!!linebreak:original
*clefF4	*
4EE-/ 4E-/	2e-/] 2ee-/]
*clefG2	*
4e-/ 4g/	.
4g/	[4ee-\ [4eee-\
=251	=251
4E-/ 4e-/	4ee-\] 4eee-\]
4cc\	8ee-\L 8eee-\
.	8ee-\J 8eee-\
4cc\	4ee-\ 4eee-\
=252	=252
4E-/ 4e-/	32eee-\LLL
.	32fff\JJ
.	8.eee-\J
4dd-\	8dddn\L
.	8eee-\J
4dd-\	8aa-\L 8aaa-\
.	8bb-\J 8bbb-\
=253	=253
4A-/	4.ccc\ 4.aaa-\ 4.cccc\
4cc\	.
.	8ccc\ 8aaa-\ 8cccc\
4r	8.ccc'\L 8.aaa-'\ 8.cccc'\
.	16ccc\Jk 16aaa-\ 16cccc\
=254	=254
!!linebreak:original
*clefF4	*
4D-\	4.ccc\ 4.aaa-\ 4.cccc\
4d-\	.
.	8bb-\ 8ggg\ 8bbb-\
*clefG2	*
4f/	8.bb-'\L 8.ggg'\ 8.bbb-'\
.	16aa-\Jk 16fff\ 16aaa-\
=255	=255
4a-/	4aa-\ 4fff\ 4aaa-\
4f/	8r
.	8gg\ 8eee-\ 8ggg\
*clefF4	*
4B-\ 4d-\	8.gg'\L 8.eee-'\ 8.ggg'\
.	16ff'\Jk 16ddd-'\ 16fff'\
=256	=256
4E-\	4.ff\ 4.ddd-\ 4.fff\
*clefG2	*
4g/	.
.	8ff\ 8ddd-\ 8fff\
4d-/	8.ff'\L 8.ddd-'\ 8.fff'\
.	16g\Jk 16dd-\ 16gg\
=257	=257
*clefF4	*
4AA-/	4a-\ 4cc\ 4aa-\
4c\	4r
4r	[4A-/
=258	=258
4AA-/	4A-/]
4E-\ 4c\	[4.a-/
4g-\	.
.	16a-\LL]
.	16aa-\JJ
=259	=259
!!linebreak:original
4D-\	[4.a-/
*clefG2	*
4d-/	.
.	16a-/LL]
.	16a-/JJ
4f/	4a-/
=260	=260
*clefF4	*
4AA-/	32a-/LLL
.	32b-/JJ
.	[8.a-/J
4c\	4a-/]
4c\	16g/LL
.	16a-/
.	16b-/
.	16cc/JJ
=261	=261
4r	16dd-\LL
.	16ee-\
.	16ff\
.	16gg-\JJ
*clefG2	*
4A-/ 4d-/	16aa-\LL
.	16bb-\
.	24ccc\
.	24ddd-\
.	24eee-\JJ
4d-/ 4f/	4fff\
=262	=262
*clefF4	*
4BB-/	4B-/
4dn\	[4.b-\
4a-\	.
.	16b-\LL]
.	16bb-\JJ
=263	=263
!!pagebreak:original
4E-\	[4.b-\
4B-\ 4e-\	.
.	16b-\LL]
.	16b-\JJ
4e-\ 4g\	4b-\
=264	=264
4BB-/	32b-\LLL
.	32cc\JJ
.	[8.b-\J
*clefG2	*
4dn/	4b-\]
4a-/	16an\LL
.	16b-\
.	16cc\
.	16ddn\JJ
=265	=265
*clefF4	*
4E-\	16ee-\LL
.	16ff\
.	16gg\
.	16aa-\JJ
*	*MM170
4B-\ 4e-\	16bb-\LL
.	16ccc\
.	24dddn\
.	24eee-\
.	24fff\JJ
*	*MM160
4B-\ 4g\	4ggg\
=266	=266
*	*MM150
4E-\	4e-/ 4ee-/
*clefG2	*MM180
4e-/ 4g/	4ee-\ 4eee-\
4B-/ 4g/	8r
.	16r
.	16eee-\ 16eeee-\
=267	=267
!!linebreak:original
4e-/	4ee-\ 4eee-\
4cc\	8r
.	16r
.	16ee-\ 16eee-\
4cc\	4ee-\ 4eee-\
=268	=268
4e-/	32eee-\LLL
.	32fff\JJ
.	8.eee-\J
4dd-\	8dddn\L
.	8eee-\J
4dd-\	8aa-\L 8aaa-\
.	8bb-\J 8bbb-\
=269	=269
4A-/	4.ccc\ 4.aaa-\ 4.cccc\
4cc\	.
.	8ccc\ 8aaa-\ 8cccc\
*	*MM150
4r	8.ccc'\L 8.aaa-'\ 8.cccc'\
.	16ccc\Jk 16aaa-\ 16cccc\
=270	=270
*clefF4	*MM180
4D-\	4ccc\ 4aaa-\ 4cccc\
4d-\	8r
.	8bb-\ 8ggg\ 8bbb-\
*clefG2	*
4f/	8.bb-'\L 8.ggg'\ 8.bbb-'\
.	16aa-\Jk 16fff\ 16aaa-\
=271	=271
!!linebreak:original
4a-/	4aa-\ 4fff\ 4aaa-\
4f/	8r
.	8gg\ 8eee-\ 8ggg\
4d-/	8.gg'\L 8.eee-'\ 8.ggg'\
.	16ff\Jk 16ddd-\ 16fff\
=272	=272
*clefF4	*
4D-\	2.ff\ 2.ddd-\ 2.fff\
4A-\ 4d-\	.
*clefG2	*
4f/	.
=273	=273
4a-/	2.b-\ 2.ff\ 2.aa-\ 2.bb-\
4d-/ 4f/	.
4d-/	.
=274	=274
*clefF4	*MM150
4Dn\	4ccc\ 4aaa-\ 4cccc\
*	*MM180
4B-\	8r
.	8bb-\ 8ggg\ 8bbb-\
*clefG2	*
4f/	8.bb-'\L 8.ggg'\ 8.bbb-'\
.	16aa-'\Jk 16fff'\ 16aaa-'\
=275	=275
4a-/	4aa-\ 4fff\ 4aaa-\
4f/	8r
.	8gg\ 8eee-\ 8ggg\
*clefF4	*
4B-\	8.gg'\L 8.eee-'\ 8.ggg'\
.	16ff'\Jk 16ddd-'\ 16fff'\
=276	=276
!!linebreak:original
4Dn\	2.ff\ 2.bb-\ 2.fff\
4B-\	.
*clefG2	*
4f/	.
=277	=277
4a-/	2b-\ 2ff\ 2aa-\ 2bb-\
4f/	.
*clefF4	*
4c-\	4cc-\ 4ccc-\
=278	=278
*	*MM189
4E-\	4cc\ 4aa-\ 4ccc\
*clefG2	*
4c/	8cc\L
.	8dd-\J
4c/	8ddn\L
.	8ff\J
=279	=279
*	*^
4a-/	12r	4ee-'\
.	12ff/L	.
.	12ee-/J	.
4c/	8cc/L	4r
.	8dd-/J	.
4c'/	8ddn/L	4r
.	8ff/J	.
*	*v	*v
=280	=280
4g-/	12ee-\L
.	12ff\
.	12ee-\J
4c'/	8cc\L
.	8dd-\J
4c'/	8ddn\L
.	8ee-\J
=281	=281
!!pagebreak:original
*	*MM190
4f/	8een\L
.	8ff\J
4An'/ 4c'/	8ccc\L
.	8gg-\J
4c'/	8ff\L
.	8ee-\J
=282	=282
4f/	12dd-\L
.	12ff\
.	12dd-\J
4d-'/	8an/L
.	8b-/J
4d-'/	8cc-\L
.	8ccn\J
=283	=283
*	*MM192
*	*^
4en/	4dd-'/	12r
.	.	12een\L
.	.	12dd-\J
4d-'/	4r	8an\L
.	.	8b-\J
4d-'/	4r	8cc-\L
.	.	8ccn\J
*	*v	*v
=284	=284
4d-/ 4e-/	8dd-\L
.	8een\J
4d-'/	8ee-\L
.	8dd-\J
4d-'/	8g/L
.	8b-/J
=285	=285
!!linebreak:original
*	*MM194
4g-/	8dd-\L
.	8ee-\J
4d-'/	8gg\L
.	8ddd-\J
4d-'/	8fff\L
.	8eee-\J
=286	=286
4A-/	4ccc\
4cc\	8ccc\L
.	8ddd-\J
4cc\	8dddn\L
.	8fff\J
=287	=287
*	*MM196
4E-/	12eee-\L
.	12fff\
.	12eee-\J
4cc\	8ccc\L
.	8ddd-\J
4cc\	8dddn\L
.	8fff\J
=288	=288
4A-/	12eee-\L
.	12fff\
.	12eee-\J
4cc\	8ccc\L
.	8ddd-\J
4cc\	8dddn\L
.	8eee-\J
=289	=289
!!linebreak:original
*	*MM200
4An/	8eeen\L
.	8fff\J
4cc\	8cccc\L
.	8ggg-\J
4cc\	8fff\L
.	8eee-\J
=290	=290
4B-/	12ddd-\L
.	12fff\
.	12ddd-\J
4f/ 4dd-/	8aan\L
.	8bb-\J
4dd-\	8ccc-\L
.	8cccn\J
=291	=291
*^	*
*	*	*MM201
4r	2en\	12ddd-\L
.	.	12eeen\
.	.	12ddd-\J
4dd-/	.	8aan\L
.	.	8bb-\J
4B-/	4r	8ccc-\L
.	.	8cccn\J
*v	*v	*
=292	=292
!!linebreak:original
*^	*
4r	2.e-\	8ddd-\L
.	.	8eeen\J
4dd-/	.	8eee-\L
.	.	8ddd-\J
4dd-/	.	8bb-\L
.	.	8gg\J
*v	*v	*
=293	=293
*clefF4	*MM203
4E-\	8ee-\L
.	8dd-\J
4r	8b-/L
.	8g/J
4r	8e-/L
.	8d-/J
=294	=294
2.AA-/	8c/L
.	8d-/J
.	8dn/L
.	8e-/J
.	8en/L
.	8f/J
=295	=295
4AAn/	8g-/L
.	8cc/J
4c\	8an/L
.	8g-/J
4AA/	8f/L
.	8e-/J
=296	=296
!!pagebreak:original
*	*MM205
4BB-/	8d-/L
.	8e-/J
4d-\	8en/L
.	8f/J
4d-\	8g-/L
.	8gn/J
=297	=297
4C-/	8a-\L
.	8ddn\J
4dn\	8cc-\L
.	8a-\J
4C-/	8g/L
.	8f/J
=298	=298
*	*MM207
4C/	8e-/L
.	8en/J
4e-\	8f/L
.	8g-/J
4e-\	8gn/L
.	8a-/J
=299	=299
4C/	8b-\L
.	8ee-\J
4g-\	8cc\L
.	8b-\J
4C/	8a-/L
.	8g-/J
=300	=300
*	*MM211
4D-\	8f/L
.	8g-/J
4f\	8a-/L
.	8b-/J
4E-\	8cc\L
.	8dd-\J
=301	=301
!!linebreak:original
4Dn\	8ee-\L
.	8een\J
4a-\	8ff\L
.	8gg-\J
4F\	8ggn\L
.	8aa-\J
=302	=302
*^	*
*	*	*MM212
4r	2.E-\	8gg\L
.	.	8bb-\J
*clefG2	*clefG2	*
4g/	.	8aa-\L
.	.	8gg\J
4g/	.	8ff\L
.	.	8ee-\J
=303	=303	=303
4r	2.E-\	8gg\L
.	.	8aa-\J
4f/	.	8gg\L
.	.	8ff\J
4f/	.	8ee-\L
.	.	8dd-\J
*v	*v	*
=304	=304
*clefF4	*MM215
*^	*
4r	2.E-\	8ff\L
.	.	8gg\J
4e-/	.	8ff\L
.	.	8ee-\J
4e-/	.	8dd-\L
.	.	8cc\J
=305	=305	=305
4r	2.E-\	8ee-\L
.	.	8ff\J
4d-/	.	8ee-\L
.	.	8dd-\J
*clefG2	*clefG2	*
4d-/	.	8cc\L
.	.	8b-\J
*v	*v	*
=306	=306
!!linebreak:original
*	*MM217
2.dn/	8cc-\L
.	8ddn\J
.	8ff\L
.	8aa-\J
.	8ccc-\L
.	8dddn\J
=307	=307
2.f/	8cccc-\L
.	8dddn\J
.	8ccc-\L
.	8aaa-\J
.	8ccc-\L
.	8aa-\J
=308	=308
*	*MM219
2.a-/	8fff\L
.	8aa-\J
.	8ff\L
.	8dddn\J
.	8ff\L
.	8ddn\J
=309	=309
4cc-\	8ccc-\L
.	8ddn\J
4r	8cc-\L
.	8aa-\J
4r	8cc-\L
*	*MM14
.	8a-\J
=310	=310
!!linebreak:original
*clefF4	*MM180
4EE-/	[2.e-/
4d-\	.
4G\ 4d-\	.
=311	=311
4AA-/	2.e-/]
4A-\ 4c\	.
4c\	.
=312	=312
*	*^
4GG/	12r	4e-'\
.	12f/L	.
.	12e-/J	.
4d-\	8dn/L	4r
.	8e-/J	.
4d-\	8a-/L	4r
.	8b-/J	.
*	*v	*v
=313	=313
4AA-/	4cc\
4c\	4r
4c\	4r
=314	=314
4EE-/	4r
4G\ 4e-\	8r
.	16r
.	16d-'/ 16b-'/
4e-\	4d-/ 4b-/
=315	=315
4AA-/	4r
4e-\	8r
.	16r
.	16c'/ 16a-'/
4e-\	4c/ 4a-/
=316	=316
!!pagebreak:original
4EE-/	4r
4d-\	8r
.	16r
.	16B-'/ 16e-'/
4d-\	4B-/ 4e-/
=317	=317
4AA-/	4r
4c\	8r
.	16r
*	*clefF4
.	16A-'\ 16e-'\
4c\	4A-\ 4e-\
=318	=318
4EE-/	[2.E-\
4d-\	.
4d-\	.
=319	=319
4EE-/	2.E-\]
4c\	.
4c\	.
=320	=320
4GG/	12E-\L
.	12F\
.	12E-\J
4d-\	8Dn\L
.	8E-\J
4d-\	8A-\L
.	8B-\J
=321	=321
4AA-/	4c\
4e-\	4r
4e-\	4r
=322	=322
!!linebreak:original
4EE-/	4r
4d-\	8r
.	16r
.	16e-'\
4d-\	4B-\ 4e-\
=323	=323
4AA-/	4r
4E-\ 4c\	8r
.	16r
.	16e-'\
4c\	4A-\ 4e-\
=324	=324
4EE-/	4r
4d-\	8r
.	16r
.	16e-'\
4d-\	4B-\ 4e-\
=325	=325
4AA-/	4r
4c\	8r
.	16r
.	16e-'\
4c\	4A-\ 4e-\
=326	=326
4AA-/	[2.AAA-/
*clefG2	*
4c/	.
4c/	.
=327	=327
4c/	2.AAA-/]
4c/	.
4c/	.
=328	=328
!!linebreak:original
4c/	2.r
4c/	.
4c/	.
=329	=329
*	*clefG2
4c/	12e-/L
.	12f/
.	12e-/J
4c/	8dn/L
.	8e-/J
4c/	8a-/L
.	8b-/J
=330	=330
*clefF4	*
4AA-/	4cc\
4c\	4r
4c\	4r
=331	=331
4AA-/	12e-/L
.	12f/
.	12e-/J
4c\	8dn/L
.	8e-/J
4c\	8a-/L
.	8b-/J
=332	=332
4AA-/	4cc\
4c\	4r
4c\	4r
=333	=333
!!linebreak:original
4AA-/	12e-/L
.	12f/
.	12e-/J
4c\	8dn/L
.	8e-/J
4c\	8a-/L
.	8b-/J
=334	=334
4AA-/	4cc\
*	*MM210
4r	8a-/L
.	8b-/J
4r	8cc\L
.	8ee-\J
=335	=335
2.r	8aa-\L
.	8bb-\J
.	8ccc\L
.	8eee-\J
.	8aaa-\L
.	8bbb-\J
=336	=336
*	*MM180
2.r	4cccc\
.	4r
.	4r
=337	=337
*clefG2	*
4cc\	4aa-\ 4eee-\ 4aaa-\
4r	4r
4r	4r
=338	=338
*clefF4	*
2.AA-/	2.A-/ 2.a-/
==	==
*-	*-
